X:1
T:Ahi Serpentella
T:Ahi Serpentella
T:Claudio Saracini
T:Aria
T:Source : Le terze Musische per cantar e sonar---Venetia---A.Vincenti---1620. Editor : André Vierendeels 08/12/15).
T:Notes : Original clefs : C1, F4 Original note values have been halved Dedicatet to Rev.Mons.Gio.Battista Seterino
C:Claudio Saracini
%%score 1 2
L:1/8
Q:1/4=85
M:3/4
K:C
V:1 treble nm="Soprano" snm="S"
V:2 bass nm="BC" snm="BC"
V:1
 z4 A2 | d4 e2 | f2 e2 d2 | ^c4 c2 | d2 A2 A2 | B3 ^c d2 | d2 f2 e2- | ee d4 | d6 :: c2 _B2 A2 | %10
w: Ahi|Ser- pen-|tel- la, pri-|va d'A-|mo- re, tra-|di- to- rel-|la, ti sof-|* fr'il co-|re.|Lin- gua bu-|
w: Dun-|que pen-|ti- ta, non|vuoi che|fi- a, piu|la tua vi-|ta,, nè tu|_ la mi-|a.|Ah men- ti-|
w: Ma-|gi- ru-|let- ta, se'un-|di ti|pren- do, far|mia ven- det-|ta, spe- ro'e|_ ta- cen-|do.|Con mor- si'e|
 d2 d2 F2 | G4 G2 | A4 A2 | f2 e2 d2 | ^c4 c2 | e2 B3 B | A2 A2 z2 | E2 F2 G2 | A3 B ^c2 | %19
w: gar- dia, be-|che tu|tar- da,,|per non a-|man- ti,|dir di la-|sciar- mi,|per non a-|mar- mi, dir|
w: tri- ce, dis-|pet- ta-|tri- ce,|lan- gua che'il|fe- le,|co- pri col|me- le,|lan- gua che'il|fe- le, co-|
w: ba- ci, fin|che tu|ta- ci,|si per ch'io|tro- ie,|ti ven- go'a|no- ia,|si per ch'io|tro- ie, ti|
 d4 D/E/F/G/ | E4 D2 :| %21
w: di la _ _ _|scar- mi.|
w: pri- col _ _ _|me- le.|
w: ven- go'a _ _ _|no- ia.|
V:2
 z4 D,2 | D,4 ^C,2 | D,2 C,2 _B,,2 | A,,4 A,,2 | D,2 D,2 F,2 | G,3 A, _B,2 | _B,2 G,2 A,2- | %7
 A,A,, D,4 | D,6 :: F,,2 G,,2 A,,2 | _B,,2 B,,2 D,2 | C,4 C,2 | F,,4 F,,2 | F,2 C,2 D,2 | %14
 A,,4 A,,2 | C,2 E,3 E, | A,,2 A,,2 z2 | A,,2 D,2 C,2 | F,,2 G,,2 A,,2 | _B,,4 G,,2 | A,,4 D,2 :| %21

